dist/img/svg/phone-white.svg

<svg width="18" height="18" viewBox="0 0 18 18" xmlns="http://www.w3.org/2000/svg">
<path d="M17.5421 13.5614C17.4953 13.5146 17.3493 13.4094 17.104 13.2456C16.8587 13.0819 16.5724 12.8947 16.2453 12.6842C15.9182 12.462 15.5911 12.2456 15.264 12.0351C14.9369 11.8129 14.6449 11.6199 14.3878 11.4561C14.1308 11.2807 13.9673 11.1754 13.8972 11.1404C13.8505 11.1053 13.792 11.076 13.7219 11.0526C13.6635 11.0292 13.5993 11.0117 13.5292 11C13.4708 10.9883 13.4065 10.9825 13.3364 10.9825C13.2897 10.9825 13.2488 10.9883 13.2138 11C13.1787 11 13.1378 11.0058 13.0911 11.0175C13.0561 11.0175 13.0152 11.0234 12.9684 11.0351C12.9217 11.0468 12.875 11.0585 12.8282 11.0702C12.7932 11.0819 12.7523 11.0994 12.7056 11.1228C12.6705 11.1345 12.6296 11.152 12.5829 11.1754C12.5362 11.1871 12.4953 11.2047 12.4603 11.2281C12.2383 11.345 11.7067 11.6433 10.8656 12.1228C10.153 11.6199 9.26513 10.8363 8.20204 9.77193C7.15063 8.7193 6.37375 7.83626 5.87141 7.12281C6.35039 6.26901 6.64829 5.73684 6.76511 5.52632C7.06885 4.94152 7.09806 4.45614 6.85273 4.07018C6.72422 3.87135 6.3095 3.24561 5.60856 2.19298C4.9193 1.14035 4.52794 0.549708 4.43448 0.421053C4.23588 0.140351 3.93214 0 3.52326 0C3.41812 0 3.31298 0.0116959 3.20783 0.0350877C3.11438 0.0584795 3.01508 0.0935673 2.90993 0.140351C2.81648 0.175439 2.72302 0.222222 2.62956 0.280702C2.57115 0.327485 2.47185 0.403509 2.33166 0.508772C2.20315 0.614035 1.98703 0.795322 1.68329 1.05263C1.39123 1.29825 1.12838 1.54386 0.89473 1.78947C0.661083 2.02339 0.450801 2.28655 0.263884 2.57895C0.0769661 2.85965 -0.0106516 3.10526 0.0010308 3.31579C0.0127131 3.80702 0.100331 4.32749 0.263884 4.87719C0.427436 5.4152 0.649401 5.95322 0.929777 6.49123C1.21015 7.02924 1.51974 7.5614 1.85852 8.08772C2.20899 8.61403 2.60035 9.14035 3.0326 9.66667C3.46485 10.193 3.87957 10.6784 4.27677 11.1228C4.67397 11.5556 5.09453 11.9942 5.53846 12.4386C6.22772 13.1287 6.91698 13.7719 7.60624 14.3684C8.2955 14.9532 9.04317 15.5322 9.84925 16.1053C10.667 16.6667 11.4906 17.117 12.3201 17.4561C13.1612 17.7953 13.9498 17.9766 14.6857 18H14.7033C14.9019 18 15.1414 17.9064 15.4217 17.7193C15.7021 17.5322 15.9591 17.3158 16.1928 17.0702C16.4381 16.8363 16.6834 16.5789 16.9288 16.2982C17.1858 16.0058 17.3668 15.7895 17.472 15.6491C17.5771 15.5088 17.6472 15.4152 17.6823 15.3684C18.0444 14.8538 18.097 14.3626 17.84 13.8947C17.7582 13.7544 17.6589 13.6433 17.5421 13.5614ZM16.771 14.7018C16.4206 15.193 16.0292 15.6608 15.597 16.1053C15.1647 16.538 14.8493 16.7953 14.6507 16.8772C13.5993 16.8187 12.3551 16.345 10.9182 15.4561C9.49294 14.5556 7.96255 13.2866 6.32702 11.6491C4.70318 10.0117 3.44148 8.47953 2.54194 7.05263C1.6424 5.61403 1.16927 4.37427 1.12254 3.33333C1.19263 3.1345 1.4438 2.81871 1.87605 2.38596C2.31998 1.95322 2.78727 1.5614 3.27793 1.21053C3.30129 1.18713 3.32466 1.16959 3.34802 1.15789C3.37139 1.1462 3.39475 1.14035 3.41812 1.14035C3.45316 1.12865 3.48821 1.12281 3.52326 1.12281C3.53494 1.12281 3.54662 1.12865 3.55831 1.14035C4.25925 2.1462 5.03028 3.30994 5.87141 4.63158C5.87141 4.72515 5.83636 4.84795 5.76627 5C5.7429 5.03509 5.7137 5.08772 5.67865 5.15789C5.6436 5.22807 5.59687 5.30994 5.53846 5.40351C5.49173 5.49708 5.43332 5.60234 5.36323 5.7193C5.29313 5.83626 5.2172 5.96491 5.13542 6.10526C5.06533 6.24561 4.98355 6.39766 4.89009 6.5614L4.53962 7.17544L4.94266 7.75439C5.49173 8.53801 6.31534 9.47953 7.41348 10.5789C8.51162 11.6784 9.44621 12.4971 10.2172 13.0351L10.7955 13.4561L11.4264 13.1053C11.7652 12.9064 12.0806 12.7251 12.3726 12.5614C12.6647 12.386 12.8691 12.2749 12.986 12.2281C13.1145 12.1462 13.2313 12.1053 13.3364 12.1053H13.354C14.3002 12.7018 15.4685 13.4795 16.8587 14.4386C16.8703 14.5205 16.8411 14.6082 16.771 14.7018Z"/>
</svg>

<svg width="18" height="18" viewBox="0 0 18 18" xmlns="http://www.w3.org/2000/svg"><path d="M17.542 13.561a4.133 4.133 0 0 0-.438-.315 62.834 62.834 0 0 0-.859-.562 47.286 47.286 0 0 0-.981-.649 36.14 36.14 0 0 0-.876-.579 6.104 6.104 0 0 0-.49-.316.614.614 0 0 0-.176-.087.927.927 0 0 0-.193-.053.984.984 0 0 0-.193-.018.387.387 0 0 0-.122.018.514.514 0 0 0-.123.018.516.516 0 0 0-.123.017l-.14.035a.96.96 0 0 0-.122.053.955.955 0 0 0-.123.052.389.389 0 0 0-.123.053c-.222.117-.753.415-1.594.895-.713-.503-1.6-1.287-2.664-2.351-1.051-1.053-1.828-1.936-2.33-2.65l.893-1.596c.304-.584.333-1.07.088-1.456a273.42 273.42 0 0 0-1.244-1.877A93.441 93.441 0 0 0 4.434.421C4.236.141 3.932 0 3.524 0c-.106 0-.211.012-.316.035A1.832 1.832 0 0 0 2.91.14a1.57 1.57 0 0 0-.28.14 13.73 13.73 0 0 1-.298.229c-.129.105-.345.286-.649.544a9.737 9.737 0 0 0-.788.736 4.675 4.675 0 0 0-.631.79c-.187.28-.275.526-.263.737.012.491.1 1.011.263 1.561.163.538.385 1.076.666 1.614.28.538.59 1.07.929 1.597.35.526.741 1.052 1.174 1.579a46.96 46.96 0 0 0 1.244 1.456c.397.433.818.871 1.261 1.316a38.97 38.97 0 0 0 2.068 1.93 33.21 33.21 0 0 0 2.243 1.736 13.2 13.2 0 0 0 2.471 1.351c.841.34 1.63.52 2.366.544h.017c.199 0 .438-.094.719-.28a4.54 4.54 0 0 0 .77-.65 11.7 11.7 0 0 0 .737-.772c.257-.292.438-.508.543-.649l.21-.28c.362-.515.415-1.006.158-1.474a1.036 1.036 0 0 0-.298-.334zm-.771 1.14c-.35.492-.742.96-1.174 1.404-.432.433-.748.69-.946.772-1.052-.058-2.296-.532-3.733-1.42-1.425-.901-2.955-2.17-4.591-3.808-1.624-1.637-2.886-3.17-3.785-4.596-.9-1.439-1.373-2.679-1.42-3.72.07-.199.322-.514.754-.947.444-.433.911-.825 1.402-1.175a.275.275 0 0 1 .07-.053.155.155 0 0 1 .07-.018.33.33 0 0 1 .105-.017c.012 0 .024.006.035.017a100.84 100.84 0 0 1 2.313 3.492.942.942 0 0 1-.105.368 1.561 1.561 0 0 0-.087.158c-.035.07-.082.152-.14.246a4.77 4.77 0 0 1-.176.315l-.228.386c-.07.14-.151.293-.245.456l-.35.614.403.58c.549.783 1.372 1.725 2.47 2.824 1.099 1.1 2.033 1.918 2.804 2.456l.579.421.63-.35c.34-.2.655-.38.947-.545.292-.175.496-.286.613-.333a.667.667 0 0 1 .35-.123h.018c.946.597 2.115 1.374 3.505 2.334.011.082-.018.17-.088.263z"/></svg>
